x-pack/solutions/search/plugins/enterprise_search/public/assets/client_libraries/rust.svg

<svg width="24" height="24" viewBox="0 0 24 24" fill="none" xmlns="http://www.w3.org/2000/svg">
<path fill-rule="evenodd" clip-rule="evenodd" d="M11.6294 0.605091C11.5886 0.628767 11.4178 0.873711 11.2495 1.14943C10.8273 1.84186 10.8225 1.84229 10.2552 1.24586C9.88617 0.857998 9.79698 0.786969 9.67805 0.78783C9.6007 0.78826 9.50311 0.81452 9.46088 0.84616C9.41887 0.8778 9.29972 1.12963 9.19631 1.40578C8.95953 2.03838 8.94811 2.05882 8.8169 2.08401C8.73611 2.09929 8.58056 2.01276 8.20761 1.74522C7.93227 1.54741 7.6621 1.38577 7.60738 1.38577C7.38029 1.38577 7.3163 1.50975 7.20815 2.15913C7.07069 2.98479 7.07543 2.98199 6.33041 2.64385C6.02965 2.5076 5.74439 2.39589 5.69635 2.39589C5.6483 2.39589 5.55717 2.44755 5.49404 2.51061C5.37942 2.62534 5.37921 2.62577 5.41045 3.25707L5.4419 3.88901L5.32233 3.95294C5.21633 4.00955 5.14329 4.00266 4.67405 3.89181C4.06153 3.74738 3.93226 3.75126 3.80816 3.91807L3.71745 4.0399L3.83918 4.56099C3.90597 4.84748 3.97039 5.12341 3.98246 5.174C3.99431 5.22436 3.97384 5.30508 3.93678 5.35308C3.87559 5.43207 3.81053 5.43917 3.24368 5.43056C2.28429 5.4155 2.22978 5.49772 2.62621 6.36212C2.75225 6.63655 2.85545 6.8858 2.85545 6.91572C2.85545 7.07371 2.72941 7.13118 2.18799 7.21943C1.88507 7.26872 1.62179 7.30918 1.60283 7.30918C1.58387 7.30918 1.52699 7.35051 1.47658 7.40087C1.31176 7.56553 1.35851 7.72007 1.73231 8.2472C2.1979 8.90368 2.19703 8.90605 1.42788 9.20007C0.553163 9.53433 0.535497 9.61677 1.20145 10.2479C1.82172 10.8355 1.82237 10.8269 1.12022 11.2679C0.588282 11.6017 0.580095 11.6097 0.566521 11.7907C0.550147 12.0109 0.554025 12.0148 1.18917 12.4024C1.8172 12.7855 1.8172 12.7972 1.2008 13.3798C0.537867 14.0062 0.558334 14.0976 1.4337 14.4276C2.19854 14.7158 2.19962 14.7193 1.73317 15.3757C1.46882 15.7479 1.38458 15.9029 1.38458 16.0178C1.38458 16.2328 1.49661 16.2877 2.16601 16.4001C2.72984 16.495 2.85545 16.5507 2.85545 16.7061C2.85545 16.738 2.75203 16.9894 2.62556 17.2645C2.23215 18.1205 2.27697 18.1917 3.20813 18.1917C4.07531 18.1917 4.05226 18.1653 3.86547 18.9466C3.72456 19.5355 3.72241 19.6483 3.84995 19.7755C3.94755 19.8732 4.13155 19.8622 4.70701 19.7247C5.14652 19.6198 5.22365 19.6125 5.32556 19.667L5.4419 19.7292L5.41045 20.3609C5.37921 20.9924 5.37942 20.9929 5.49404 21.1076C5.55717 21.1707 5.6496 21.2223 5.69915 21.2223C5.7487 21.2223 6.03396 21.1112 6.33321 20.9754C7.07586 20.6386 7.07112 20.6358 7.20815 21.4589C7.31674 22.1113 7.38008 22.2324 7.6119 22.2324C7.66942 22.2324 7.93378 22.0775 8.19964 21.8881C8.66652 21.5553 8.7876 21.5032 8.91192 21.5822C8.94402 21.6024 9.06855 21.8758 9.18855 22.1896C9.365 22.6511 9.42964 22.7712 9.52788 22.8181C9.71489 22.9076 9.83059 22.8358 10.2701 22.3575C10.8008 21.78 10.8225 21.7828 11.2558 22.4843C11.7343 23.2587 11.8582 23.257 12.3487 22.4686C12.7715 21.7893 12.7665 21.7897 13.3379 22.3859C13.7173 22.7815 13.7981 22.8446 13.926 22.8446C14.0077 22.8446 14.1053 22.814 14.1426 22.7766C14.1801 22.7391 14.3042 22.4625 14.4183 22.1621C14.5325 21.8614 14.6508 21.5996 14.6814 21.5803C14.8023 21.5034 14.9274 21.5574 15.3937 21.8881C15.6682 22.0828 15.9265 22.2324 15.9879 22.2324C16.2158 22.2324 16.2981 22.0708 16.3929 21.4354C16.4739 20.8936 16.4903 20.8418 16.597 20.7877C16.7019 20.7346 16.7648 20.7524 17.2569 20.9756C17.5561 21.1112 17.8414 21.2223 17.8909 21.2223C17.9405 21.2223 18.0344 21.1691 18.0993 21.1041L18.2176 20.9862L18.185 20.3803C18.154 19.8017 18.1568 19.7707 18.2492 19.6872C18.3442 19.6013 18.3539 19.6018 18.8852 19.7229C19.5286 19.8697 19.6486 19.8736 19.7694 19.7529C19.8875 19.6349 19.8862 19.6091 19.7246 18.9283C19.5434 18.1646 19.5191 18.1917 20.3899 18.1917C20.9835 18.1917 21.0496 18.1833 21.1253 18.1C21.2515 17.9606 21.2216 17.8009 20.9675 17.26C20.8394 16.9875 20.7353 16.7395 20.7362 16.7089C20.7405 16.5482 20.8669 16.4933 21.4514 16.3983C21.8091 16.3404 22.0767 16.2733 22.1252 16.2296C22.2876 16.083 22.2279 15.8923 21.8571 15.3729C21.3924 14.7221 21.3944 14.7158 22.1385 14.4418C23.0296 14.1138 23.055 14.0044 22.3882 13.3714C21.7705 12.7851 21.7703 12.7883 22.4468 12.3734C23.2647 11.8718 23.2659 11.7588 22.4613 11.2599C21.7692 10.8309 21.7697 10.837 22.3899 10.2485C23.0552 9.61699 23.0371 9.53433 22.1622 9.20007C21.39 8.90497 21.3877 8.89765 21.8569 8.2543C22.1364 7.87117 22.2055 7.74397 22.2055 7.61267C22.2055 7.38322 22.1025 7.33178 21.4252 7.22244C20.8592 7.13118 20.7346 7.07564 20.7346 6.91486C20.7346 6.8843 20.8381 6.63828 20.9645 6.36772C21.2121 5.83801 21.2468 5.626 21.1067 5.49922C21.0315 5.43121 20.9307 5.42152 20.3912 5.43035C19.8267 5.43982 19.7546 5.43185 19.6764 5.35329C19.5908 5.26741 19.5917 5.25536 19.7253 4.69853C19.889 4.01622 19.8897 3.99965 19.755 3.8733C19.6184 3.74502 19.5331 3.74717 18.9059 3.89461C18.449 4.00223 18.3733 4.00933 18.2695 3.9538L18.1516 3.89073L18.1842 3.26094L18.2169 2.63136L18.0991 2.51363C18.0342 2.44884 17.9422 2.39589 17.8944 2.39589C17.8468 2.39589 17.563 2.50846 17.264 2.64578C16.7646 2.87545 16.7109 2.89073 16.603 2.83433C16.4953 2.77794 16.4774 2.72241 16.3854 2.16128C16.2792 1.51211 16.2135 1.38577 15.9827 1.38577C15.928 1.38577 15.6567 1.54827 15.3799 1.74694C14.9253 2.07324 14.8643 2.10402 14.751 2.06464C14.6573 2.03192 14.6028 1.96067 14.5362 1.78353C14.4869 1.6531 14.3925 1.4017 14.3261 1.22498C14.1921 0.868545 14.1174 0.788691 13.9166 0.788691C13.8045 0.788691 13.7031 0.869191 13.3394 1.24651C12.7678 1.83971 12.7656 1.83949 12.3453 1.15073C12.1773 0.875433 12.0017 0.629628 11.9549 0.604661C11.8498 0.548268 11.7261 0.548483 11.6294 0.605091ZM12.1503 2.67893C12.6482 3.033 12.3834 3.86534 11.7729 3.86534C11.1804 3.86534 10.882 3.15224 11.3051 2.74738C11.5438 2.51879 11.8862 2.49103 12.1503 2.67893ZM11.5242 4.8774C11.8506 5.00137 11.9846 4.9269 12.7299 4.20929L13.2898 3.6699L13.5268 3.70132C14.2701 3.7999 15.7485 4.44864 16.598 5.04894C17.3786 5.60082 18.416 6.7248 18.8581 7.49773L18.9527 7.66325L18.5338 8.606C18.3033 9.12452 18.1148 9.60321 18.1148 9.67015C18.1148 9.82448 18.2161 10.0686 18.3137 10.1493C18.3548 10.1835 18.7458 10.3716 19.1826 10.5673L19.9763 10.9233L20.0075 11.125C20.0478 11.3878 20.0532 12.0333 20.0166 12.2167L19.9879 12.36H19.5348C19.0093 12.36 19.0498 12.3131 19.0214 12.9571C19.0007 13.4239 18.8878 13.682 18.631 13.849C18.2126 14.1218 17.5217 14.0722 17.2287 13.7487C17.1836 13.699 17.0962 13.4491 17.0341 13.1932C16.8529 12.4457 16.6095 12.026 16.1204 11.6176C15.9659 11.4887 15.8397 11.3684 15.8397 11.3501C15.8397 11.332 16.0094 11.1891 16.2171 11.0331C16.9733 10.4635 17.4081 9.80059 17.456 9.14389C17.5471 7.8914 16.5483 6.72394 15.0625 6.34555C14.7103 6.25579 14.5599 6.253 10.202 6.253C7.72867 6.253 5.70497 6.23685 5.70497 6.21727C5.70497 6.17099 6.25457 5.63805 6.57839 5.37073C7.46755 4.63633 8.62257 4.05841 9.81874 3.74975L10.2324 3.64278L10.8201 4.23813C11.1435 4.56551 11.4605 4.85307 11.5242 4.8774ZM4.12336 8.70803C4.39418 8.88517 4.50513 9.33029 4.34527 9.59783C4.09794 10.012 3.47141 10.0294 3.22386 9.62904C2.86385 9.04746 3.55716 8.33738 4.12336 8.70803ZM20.0773 8.73063C20.7857 9.16218 20.2367 10.2237 19.4784 9.88862C18.9721 9.66477 18.9559 8.97342 19.451 8.72116C19.6576 8.6159 19.895 8.61956 20.0773 8.73063ZM6.21062 11.3729V14.0131H3.8743L3.78166 13.6114C3.59939 12.8204 3.52269 12.0021 3.56858 11.3318L3.60068 10.8609L4.40387 10.501C4.90781 10.2754 5.23184 10.1034 5.27364 10.0395C5.45634 9.7612 5.43889 9.56231 5.1825 8.99666L5.06271 8.73256H6.21062V11.3729ZM12.9369 8.8475C13.4372 8.97751 13.7015 9.24204 13.7022 9.6129C13.7026 9.88518 13.5675 10.0561 13.2325 10.2072C12.9953 10.3144 12.9576 10.3169 11.4617 10.3316L9.93357 10.3462V8.77841H11.3027C12.3722 8.77841 12.7301 8.79348 12.9369 8.8475ZM12.4207 12.6362C12.6687 12.705 12.9619 12.9203 13.1123 13.1439C13.2702 13.379 13.3626 13.6846 13.5815 14.6971C13.7664 15.5529 13.8853 15.8327 14.2184 16.1969C14.631 16.6478 14.5353 16.6304 16.5963 16.6304C17.5833 16.6304 18.3906 16.6461 18.3906 16.6655C18.3906 16.7001 17.7108 17.503 17.6815 17.503C17.6731 17.503 17.3181 17.4287 16.8926 17.3379C15.691 17.0815 15.6477 17.1117 15.3719 18.3981L15.1946 19.2247L15.0345 19.3034C14.7674 19.4352 13.8991 19.7064 13.449 19.7989C12.7053 19.9517 11.8959 20.0034 11.1845 19.9434C9.97171 19.8407 8.36575 19.3706 8.30306 19.0996C8.2897 19.0421 8.20891 18.6702 8.12381 18.2729C8.03849 17.8755 7.93486 17.4987 7.89349 17.4354C7.69463 17.1323 7.48543 17.1136 6.56547 17.317C6.21709 17.394 5.91309 17.4569 5.88982 17.4569C5.84608 17.4569 5.19952 16.71 5.19952 16.6596C5.19952 16.6439 6.73524 16.6256 8.61223 16.6192L12.0249 16.6076L12.0372 15.3964C12.0458 14.5413 12.034 14.1665 11.9969 14.1222C11.9556 14.0722 11.7354 14.0591 10.9391 14.0591H9.93357V12.5897L11.0942 12.5899C11.7324 12.5901 12.3294 12.611 12.4207 12.6362ZM7.16204 18.1439C7.70476 18.4743 7.4445 19.34 6.80268 19.3394C6.14448 19.339 5.90059 18.4812 6.46141 18.1394C6.64691 18.0264 6.97288 18.0286 7.16204 18.1439ZM17.0998 18.1801C17.3659 18.3749 17.4544 18.7802 17.2896 19.0501C16.8568 19.7593 15.7744 19.1956 16.1359 18.4494C16.3136 18.0828 16.7861 17.9507 17.0998 18.1801Z" fill="black"/>
</svg>

<svg xmlns="http://www.w3.org/2000/svg" width="24" height="24" fill="none"><path fill="#000" fill-rule="evenodd" d="M11.63.605c-.041.024-.212.269-.38.544-.423.693-.428.693-.995.097-.369-.388-.458-.459-.577-.458a.43.43 0 0 0-.217.058c-.042.032-.161.284-.265.56-.236.632-.248.653-.38.678-.08.015-.235-.071-.608-.339-.276-.198-.546-.36-.6-.36-.228 0-.292.125-.4.774-.137.826-.133.823-.878.485-.3-.136-.586-.248-.634-.248s-.139.052-.202.115c-.115.114-.115.115-.084.746l.032.632-.12.064c-.106.057-.179.05-.648-.061-.612-.145-.742-.14-.866.026l-.09.122.121.521.143.613a.25.25 0 0 1-.045.18c-.061.078-.126.085-.693.077-.96-.016-1.014.067-.618.931.126.275.23.524.23.554 0 .158-.127.215-.668.303-.303.05-.566.09-.585.09s-.076.042-.126.092c-.165.165-.118.32.255.846.466.657.465.66-.304.953-.875.334-.893.417-.227 1.048.62.588.621.579-.08 1.02-.533.334-.54.342-.554.523-.017.22-.013.224.622.611.628.384.628.395.012.978-.663.626-.643.718.233 1.048.765.288.766.291.3.948-.265.372-.35.527-.35.642 0 .215.113.27.782.382.564.095.69.15.69.306 0 .032-.104.283-.23.559-.394.855-.349.927.582.927.867 0 .844-.027.657.755-.14.588-.143.701-.015.829.098.097.282.086.857-.051.44-.105.517-.113.619-.058l.116.062-.032.632c-.03.631-.03.632.084.747.063.063.156.114.205.114.05 0 .335-.11.634-.247.743-.336.738-.34.875.484.109.652.172.773.404.773.057 0 .322-.154.588-.344.467-.333.588-.385.712-.306.032.02.157.294.277.608.176.461.24.581.339.628.187.09.303.018.742-.46.53-.578.553-.575.986.126.478.775.602.773 1.093-.015.422-.68.418-.68.989-.083.38.396.46.459.588.459.082 0 .18-.031.217-.068s.161-.315.275-.615.233-.562.263-.582c.121-.077.246-.023.713.308.274.195.533.344.594.344.228 0 .31-.161.405-.797.08-.541.097-.593.204-.647.105-.053.168-.036.66.188.3.135.584.246.634.246s.143-.053.208-.118l.119-.118-.033-.606c-.031-.578-.028-.61.064-.693.095-.086.105-.085.636.036.644.147.764.15.884.03.119-.118.117-.144-.044-.825-.182-.763-.206-.736.665-.736.593 0 .66-.009.735-.092.127-.14.097-.3-.157-.84-.129-.273-.233-.52-.232-.551.005-.16.13-.216.715-.31.358-.059.626-.126.674-.17.163-.146.103-.337-.268-.856-.465-.65-.463-.657.282-.931.89-.328.916-.438.25-1.07-.619-.587-.619-.584.058-.999.818-.501.819-.614.014-1.113-.692-.43-.691-.423-.071-1.011.665-.632.647-.715-.228-1.049-.772-.295-.774-.302-.305-.946.28-.383.349-.51.349-.641 0-.23-.104-.281-.78-.39-.567-.092-.691-.147-.691-.308 0-.03.103-.277.23-.547.247-.53.282-.742.142-.869-.075-.068-.176-.077-.716-.069-.564.01-.636.002-.715-.077-.085-.086-.084-.098.05-.654.163-.683.164-.7.029-.826-.137-.128-.222-.126-.85.022-.456.107-.532.114-.636.059l-.117-.063.032-.63.033-.63-.118-.117c-.065-.065-.157-.118-.205-.118s-.331.112-.63.25c-.5.23-.553.245-.661.188s-.126-.112-.218-.673c-.106-.649-.172-.775-.402-.775-.055 0-.326.162-.603.36-.455.327-.516.358-.629.319-.094-.033-.148-.104-.215-.281-.05-.13-.143-.382-.21-.559-.134-.356-.209-.436-.41-.436-.111 0-.213.08-.577.458-.571.593-.573.592-.994-.096-.168-.276-.343-.521-.39-.546a.33.33 0 0 0-.326 0m.52 2.074c.498.354.233 1.186-.377 1.186-.593 0-.891-.713-.468-1.118a.65.65 0 0 1 .845-.068m-.626 2.198c.327.124.46.05 1.206-.668l.56-.54.237.032c.743.099 2.222.748 3.071 1.348.78.552 1.818 1.676 2.26 2.449l.095.165-.42.943c-.23.519-.418.997-.418 1.064 0 .154.101.399.199.48.04.034.432.222.869.417l.793.356.032.202c.04.263.045.908.009 1.092l-.03.143h-.452c-.526 0-.485-.047-.514.597-.02.467-.133.725-.39.892-.418.273-1.11.223-1.402-.1-.045-.05-.133-.3-.195-.556-.181-.747-.424-1.167-.914-1.575-.154-.13-.28-.25-.28-.268s.17-.16.377-.317c.756-.57 1.191-1.232 1.239-1.89.091-1.252-.908-2.42-2.393-2.797-.353-.09-.503-.093-4.861-.093-2.473 0-4.497-.016-4.497-.036 0-.046.55-.579.873-.846.89-.735 2.045-1.313 3.24-1.621l.414-.107.588.595c.323.328.64.615.704.64m-7.4 3.831c.27.177.381.622.221.89-.247.414-.874.431-1.121.031-.36-.582.333-1.292.9-.921m15.953.023c.709.431.16 1.493-.599 1.158a.642.642 0 0 1-.027-1.168.64.64 0 0 1 .626.01M6.211 11.373v2.64H3.874l-.092-.402c-.183-.79-.26-1.609-.213-2.28l.032-.47.803-.36c.504-.226.828-.398.87-.461.182-.279.165-.478-.091-1.043l-.12-.264H6.21zm6.726-2.525c.5.13.765.394.765.765 0 .272-.134.443-.47.594-.237.107-.274.11-1.77.125l-1.528.014V8.778h1.369c1.07 0 1.427.015 1.634.07m-.516 3.788c.248.069.54.284.691.508.158.235.25.54.47 1.553.184.856.303 1.136.636 1.5.413.45.317.433 2.378.433.987 0 1.795.016 1.795.036 0 .034-.68.837-.71.837-.008 0-.363-.074-.788-.165-1.202-.257-1.245-.226-1.521 1.06l-.177.827-.16.078c-.268.132-1.136.403-1.586.496a8.2 8.2 0 0 1-2.264.144c-1.213-.102-2.82-.572-2.882-.843l-.18-.827c-.085-.398-.188-.774-.23-.838-.198-.303-.408-.321-1.328-.118-.348.077-.652.14-.675.14-.044 0-.69-.747-.69-.797 0-.016 1.535-.034 3.412-.04l3.413-.012.012-1.212c.009-.855-.003-1.23-.04-1.274-.041-.05-.262-.063-1.058-.063H9.934v-1.47h1.16c.638.001 1.235.022 1.327.047m-5.259 5.508c.543.33.282 1.196-.36 1.195-.658 0-.901-.858-.34-1.2.185-.113.51-.11.7.005m9.938.036c.266.195.354.6.19.87-.433.71-1.516.146-1.154-.6.178-.367.65-.5.964-.27" clip-rule="evenodd"/></svg>
